X:1
T:Title
%%score 1 { 2 | 3 }
L:1/8
Q:1/4=90
M:3/4
K:Bb
V:1 treble nm="Grand Piano, Soprano"
V:2 bass nm="Choir Pad, Mother�s Gone"
V:3 bass 
V:1
 [DF][DF] [DB]3 [DF] | [B,D][DF] [EG] [DF]3 | [FB][FB] [Ec]3 [EB] | [EB][EG] [DF]4 | %4
w: By~E.~E.~Matthews,~1919 * * *||||
 [DF][DF] [DB]3 [DF] | [B,D][DF] [EG] [DF]3 | [FB][Fc] [Fd]3 [Gc] | [FB][FA] [FB]4 | %8
w: ||||
 [DB][DB] [Ec]3 [EB] | [EB][EG] [DF] [FB]3 | [GB][FB] [=Ec]3 [EB] | [=EB][EG] F2 _E2 | %12
w: ||||
 [DF][DF] [DB]3 [DF] | [B,D][DF] [EG] [DF]3 | [FB][Gc] [Fd]3 [Fc] | [EF][Ec] [DB]4- | [DB]4 z2 |] %17
w: |||||
V:2
 B,B, F,3 B, | F,B, B,4 | B,B, G,3 G, | G,B, B,4 | B,B, F,3 B, | F,B, B,4 | B,A, B,3 E | DC D4 | %8
 F,F, G,3 G, | G,B, B,[K:treble] D3 | DD C3 G, | G,B, A,4 | B,B, F,3 B, | F,B, B, B,3 | %14
 B,B, B,3 A, | A,F, F,4- | F,4 z2 |] %17
V:3
 B,,B,, B,,3 B,, | B,,B,, B,,4 | D,D, E,3 E, | E,E, B,,4 | B,,B,, B,,3 B,, | B,,B,, B,,4 | %6
 D,F, z2 z E, | F,F, B,,4 | B,,B,, E,3 E, | E,E, B,, B,,3 | G,G, C,3 C, | C,C, F,4 | %12
 B,,B,, B,,3 B,, | B,,B,, B,, B,,3 | D,E, F,3 F, | .F,2 B,,4- | B,,4 z2 |] %17

